src/components/icons/svg/Reply-Outline.svg

<svg xmlns="http://www.w3.org/2000/svg" width="16" height="16" fill="none" viewBox="0 0 16 16"><g clip-path="url(#a)"><path fill="#475569" d="M8 0C3.6 0 0 3.1 0 7s3.6 7 8 7h.6l5.4 2v-4.4c1.2-1.2 2-2.8 2-4.6 0-3.9-3.6-7-8-7m4 10.8v2.3L8.9 12H8c-3.3 0-6-2.2-6-5s2.7-5 6-5 6 2.2 6 5c0 2.2-2 3.8-2 3.8"/></g><defs><clipPath id="a"><path fill="#fff" d="M0 0h16v16H0z"/></clipPath></defs></svg>

<svg width="16" height="16" viewBox="0 0 16 16" fill="none" xmlns="http://www.w3.org/2000/svg">
<g clip-path="url(#clip0_413_278)">
<path d="M8 0C3.6 0 0 3.1 0 7C0 10.9 3.6 14 8 14C8.2 14 8.4 14 8.6 14L14 16V11.6C15.2 10.4 16 8.8 16 7C16 3.1 12.4 0 8 0ZM12 10.8V13.1L8.9 12C8.9 12 8.2 12 8 12C4.7 12 2 9.8 2 7C2 4.2 4.7 2 8 2C11.3 2 14 4.2 14 7C14 9.2 12 10.8 12 10.8Z" fill="#475569"/>
</g>
<defs>
<clipPath id="clip0_413_278">
<rect width="16" height="16" fill="white"/>
</clipPath>
</defs>
</svg>
